X:223
T: Huzi diao
N: C0354
O: China, Anhui, Bengbu
S: III, 591]
N: Phrase 3 ist textunterlegt.,  Streichen? ) Wenig Verzierungen, Glissan
N: di.
R: Xiaodiao. Yule wanshua]
M: 2/4
L: 1/16
K: G
d2d2e2dB | A4GE3 | A4GE3 |
d2A2e2dB | A4Ge3 | A4GE3 |
E2EGE2EG | A4A2E2 | G2EGA2AG | G3ED4

